ufans-frontend-package/public/assets/images/new-home/icon/edit-profile-theme.svg

<svg width="100" height="100" viewBox="0 0 100 100" fill="none" xmlns="http://www.w3.org/2000/svg">
<path fill-rule="evenodd" clip-rule="evenodd" d="M8.35775 0H91.6423C96.2402 0 100 3.75977 100 8.35775V91.6423C100 96.2402 96.2402 100 91.6423 100H8.35775C3.75977 100 0 96.2402 0 91.6423V8.35775C0 3.75977 3.75977 0 8.35775 0ZM41.8701 70.6624C40.2018 71.2158 38.501 71.7285 36.8327 72.2819C35.1644 72.8353 33.5042 73.3887 31.7952 73.9502C27.8239 75.2279 25.651 75.9603 25.179 76.0824C24.707 76.2126 25.0081 74.3734 25.9928 70.5322L29.1504 58.4473L52.9704 33.6914L65.6494 45.8984L41.8701 70.6624ZM65.6087 24.7233C65.0147 24.1699 64.3311 23.8688 63.5579 23.9095C62.793 23.9095 62.1094 24.2106 61.5479 24.8047L57.0231 29.5003L69.7022 41.7562L74.2676 36.971C74.821 36.4176 75.0326 35.6934 75.0326 34.9202C75.0326 34.1553 74.7315 33.4229 74.1781 32.9102L65.6087 24.7233Z" fill="#6661E7"/>
</svg>

<svg xmlns="http://www.w3.org/2000/svg" width="100" height="100" viewBox="0 0 100 100">
  <path id="edit-profile-theme" d="M8.358,0H91.642A8.381,8.381,0,0,1,100,8.358V91.642A8.381,8.381,0,0,1,91.642,100H8.358A8.381,8.381,0,0,1,0,91.642V8.358A8.381,8.381,0,0,1,8.358,0ZM41.87,70.662c-1.668.553-3.369,1.066-5.037,1.619S33.5,73.389,31.8,73.95c-3.971,1.278-6.144,2.01-6.616,2.132s-.171-1.709.814-5.55L29.15,58.447,52.97,33.691,65.649,45.9ZM65.609,24.723a2.74,2.74,0,0,0-2.051-.814,2.7,2.7,0,0,0-2.01.9l-4.525,4.7L69.7,41.756l4.565-4.785a2.794,2.794,0,0,0,.765-2.051,2.729,2.729,0,0,0-.854-2.01Z" fill="#e44499" fill-rule="evenodd"/>
</svg>
